X: 3081
T: Mr Bushby Maitland's    Reel
C: by Nath:Gow.
%R: reel
B: Niel Gow & Sons "A Third Collection of Strathspey Reels, etc." v.3 p.8 #1
Z: 2022 John Chambers <jc:trillian.mit.edu>
M: C|
L: 1/8
K: D
% - - - - - - - - - -
V: 1 staves=2
A |\
FDAF d2TdA | d2Tdf eEEA |[1 FDAF d2dB | (cd)eg fdd :|[2 FDAF dABG | FA dg fdTd |] g | Tf>ede fgaf |
Tgfed cAeg | Tfede fgaf | ecdB Addg || fdfg fgaf | Tg>fed cAeg | fdgb afge | fdec dDD |]
% - - - - - - - - - -
% Voice 2 preserves the staff layout in the book.
V: 2 clef=bass middle=d
z | d2d2 d2d2 | d2d2 e2e2 |[1 d2d2 d2d2 | a2A2 d2d :|[2 d2d2 f2g2 | a2A2 d2d |] z | d'2d'2 d'2d'2 |
a2a2 a2a2 | d'2d'2 d'2d'2 | a2A2 d2d2 || d'2d'2 d2d2 | a2a2 a2a2 | d2g2 f2g2 | a2A2 d2D |]


